X:333
T:Oh je sais bien le mal qu'elle a
R:Bourree 3 temps
C:trad.
A:Auvergne
O:France
M:3/8
L:1/8
Q:1/4=100
K:G
c|B/2c/2B A|G2A|B/2c/2B A|d2:|
|d|e2g|d2B|c/2d/2cA|BGd|e2g|d2B|c/2d/2cA|G2||
W:
W:Oh! je sais bien le mal qu'elle a (bis)
W:Le mal qu'elle a n'est pas dans les jambes
W:Le mal qu'elle a il est dans les bras.
